X:1
T:Censorinus, 87.87 D
T:Censorinus, 87.87 D
T:Anonymous, 1893
T:Public Domain Courtesy of the Cyber Hymnal™
C:Anonymous, 1893
Z:Public Domain
Z:Courtesy of the Cyber Hymnal™
%%score ( 1 2 ) ( 3 4 )
L:1/8
Q:1/4=108
M:4/4
K:G
V:1 treble 
V:2 treble 
V:3 bass 
V:4 bass 
V:1
 G3 G G2 G2 | [GB]3 [GB] [GB]2 [GB]2 | [Gd]3 [Gd] [G^c]2 [G=c]2 | [GB]2 [G^A]2 [GB]4 | %4
 [GB]3 [GB] [GB]2 [GB]2 | [GB]2 [GB]2 [Ad]2 [GB]2 | [GB]3 [=FB] [^FA]2 [Fd]2 | [Gd]2 [G^c]2 [Fd]4 | %8
 [Ee]3 [Ee] [DA]2 [DB]2 | [Ec]2 [E^c]2 [Dd]2 [DG]2 | [Cc]2 [DB]2 [EA]2 [CE]2 | %11
 [CF]2 [B,G]2 ([C-^G]4 | [CA]4) z4 | [B,B]3 [CA] [B,G]2 [B,D]2 | [DG]2 [GB]2 [^Ae]4 | [Bd]8 | %16
 [Ge]6 [Ge]2 | d4 [^CG]4 | B6 (z2 A2) | [B,G]8 |] %20
V:2
 G3 G G2 G2 | x8 | x8 | x8 | x8 | x8 | x8 | x8 | x8 | x8 | x8 | x8 | x8 | x8 | x8 | x8 | x8 | %17
 G2 D2 x4 | (D2 B,2) C4 x2 | x8 |] %20
V:3
 [G,,G,]3 [G,,G,] [G,,G,]2 [G,,G,]2 | [G,,G,D]3 [G,,G,D] [G,,G,D]2 [G,,G,D]2 | %2
 [G,,G,=F]3 [G,,G,F] [G,,G,E]2 [G,,G,_E]2 | [G,,G,D]2 [G,,G,^C]2 [G,,G,D]4 | %4
 [G,D]3 [G,D] [G,D]2 [G,D]2 | [G,D]2 [G,D]2 [F,D]2 [G,D]2 | [G,D]3 [^G,D] [A,D]2 [A,D]2 | %7
 [A,E]2 A,2 [D,A,]4 | [C,A,]3 [C,A,] [C,F,]2 [B,,G,]2 | [A,,E,]2 [G,,A,]2 [F,,A,]2 [G,,B,]2 | %10
 [A,,E,]2 [B,,^G,]2 [C,A,]2 [C,A,]2 | [D,A,]2 [D,G,]2 [D,F,]4- | [D,F,]4 z4 | %13
 [G,,G,]3 [G,,F,] [G,,G,]2 [G,B,]2 | [G,B,]2 [G,D]2 [G,^C]4 | [G,D]8 | [C,C]6 [^C,_B,]2 | %17
 [D,B,]4 [E,_B,]4 | (B,2 G,2) [D,F,]4 x2 | [G,,G,]8 |] %20
V:4
 x8 | x8 | x8 | x8 | x8 | x8 | x8 | x2 A,2 x4 | x8 | x8 | x8 | x8 | x8 | x8 | x8 | x8 | x8 | x8 | %18
 D,4 x6 | x8 |] %20

